svgs/boost_for_reddit.svg

<svg width="192" height="192" viewBox="0 0 192 192" fill="none" xmlns="http://www.w3.org/2000/svg"><path d="M92.953 57.154c22.628-22.627 57.983-35.355 76.368-33.94 1.414 18.384-11.314 53.74-33.941 76.367-22.628 22.627-48.084 39.598-62.226 45.255L47.698 119.38c5.657-14.142 22.628-39.598 45.255-62.226Zm-5.657 48.084-39.598 39.598" stroke="#000" stroke-width="12" stroke-linecap="round" stroke-linejoin="round"/><circle cx="128.309" cy="64.225" r="12" transform="rotate(45 128.309 64.225)" fill="#000"/><path d="m115.581 119.38 1.569 17.256c.779 8.57-3.09 16.9-10.139 21.835l-16.886 11.82-1.414-32.527M73.154 76.953l-17.256-1.569a24 24 0 0 0-21.835 10.139l-11.82 16.886 32.527 1.414" stroke="#000" stroke-width="12" stroke-linecap="round" stroke-linejoin="round"/></svg>

<svg id="vector" xmlns="http://www.w3.org/2000/svg" width="192" height="192" viewBox="0 0 192 192"><path fill="#00000000" d="M92.953,57.154C115.581,34.527 150.936,21.799 169.321,23.213C170.735,41.598 158.007,76.953 135.38,99.581C112.752,122.208 87.296,139.179 73.154,144.836L47.698,119.38C53.355,105.238 70.326,79.782 92.953,57.154Z" stroke-linejoin="round" stroke-width="12" stroke="#000000" stroke-linecap="round" id="path_0"/><path fill="#00000000" d="M87.296,105.238L47.699,144.836" stroke-linejoin="round" stroke-width="12" stroke="#000000" stroke-linecap="round" id="path_1"/><path fill="#000000" d="M128.309,64.225m-8.485,-8.485a12,12 0,1 1,16.971 16.971a12,12 0,1 1,-16.971 -16.971" id="path_2"/><path fill="#00000000" d="M115.581,119.38L117.15,136.636C117.929,145.206 114.06,153.536 107.011,158.471L90.125,170.291L88.711,137.764" stroke-linejoin="round" stroke-width="12" stroke="#000000" stroke-linecap="round" id="path_3"/><path fill="#00000000" d="M73.154,76.953L55.897,75.384C47.328,74.605 38.998,78.474 34.063,85.523L22.243,102.409L54.77,103.823" stroke-linejoin="round" stroke-width="12" stroke="#000000" stroke-linecap="round" id="path_4"/></svg>
